X:386
T: HINWEG MIT DEN SORGEN
N: F0690
O: Europa, Mitteleuropa, Deutschland
R: Geselligkeits -, Tageszeiten - Lied, Morgen
M: 6/8
L: 1/8
K: C
G, | C3G,2G, | E,3C,2
E | D4CD | E4z
D | C4B,A, | D4C
B, | A,4B,A, | G,3z2
G, | D3EDE | F3D2
D | E3FEF | G3-G2
F | E4DC | C4B,
A, | G,4A,B, | C3z2

@@@ Tune index: 5817
